X:1
T:Jamaica
T:The Prodigal's Resolution
T:My Father was born before Me
B:Playford, Dancing Master, 4th ed., 1670, 142
N:Also in Pills to Purge Melancholy, 1719-20, III 45, in G
L:1/8
Q:1/4=100
M:4/4
K:F
F2 A2 A2 Bc|d2 c2 d4|c2 A2 A2 GF|G4 F4:|
f2 f2 e2 dc|d2 d2 c2 A2|f2 f2 ef g2|d4 c4|
f2 f2 e2 dc|d2 d2 c2 A2|Bc d2 c2 BA|G4 F4|]Contact us
